src/static/logos/passbolt.svg

<?xml version="1.0" encoding="UTF-8" standalone="no"?>
<svg width="256px" height="236px" viewBox="0 0 256 236" version="1.1" xmlns="http://www.w3.org/2000/svg" xmlns:xlink="http://www.w3.org/1999/xlink" preserveAspectRatio="xMidYMid">
    <g>
        <path d="M249.2421,102.85 L159.6141,7.79 C150.2141,-2.179 134.5131,-2.641 124.5451,6.758 L58.1701,69.34 C70.6781,77.619 80.1791,90.054 84.7361,104.672 L179.6341,104.672 C192.8761,104.672 192.8761,136.509 179.6341,136.509 L170.2891,136.509 L170.2891,156.079 C170.2891,168.152 128.5211,168.152 128.5211,156.079 L128.5211,136.509 L86.4951,136.509 C83.7181,151.122 76.1611,164.031 65.4461,173.508 L116.6751,227.842 C126.0741,237.81 141.7751,238.272 151.7441,228.873 L248.2101,137.919 C258.1791,128.52 258.6411,112.819 249.2421,102.85 Z M26.8721,96.7855 C12.0311,96.7855 0.0001,108.8165 0.0001,123.6575 C0.0001,138.4985 12.0311,150.5295 26.8721,150.5295 C41.7131,150.5295 53.7441,138.4985 53.7441,123.6575 C53.7441,108.8165 41.7131,96.7855 26.8721,96.7855 Z" fill="#D40000"></path>
    </g>
</svg>

<svg width="256" height="236" xmlns="http://www.w3.org/2000/svg" preserveAspectRatio="xMidYMid"><path d="M249.242 102.85L159.614 7.79c-9.4-9.969-25.1-10.431-35.069-1.032L58.17 69.34c12.508 8.279 22.01 20.714 26.566 35.332h94.898c13.242 0 13.242 31.837 0 31.837h-9.345v19.57c0 12.073-41.768 12.073-41.768 0v-19.57H86.495a65.752 65.752 0 01-21.049 36.999l51.23 54.334c9.398 9.968 25.1 10.43 35.068 1.031l96.466-90.954c9.97-9.399 10.431-25.1 1.032-35.069zm-222.37-6.064C12.032 96.785 0 108.816 0 123.656 0 138.5 12.031 150.53 26.872 150.53s26.872-12.031 26.872-26.873c0-14.84-12.03-26.871-26.872-26.871z" fill="#D40000"/></svg>
